svgs/thin/square-person-confined.svg

<svg xmlns="http://www.w3.org/2000/svg" viewBox="0 0 448 512"><!--! Font Awesome Pro 6.4.0 by @fontawesome - https://fontawesome.com License - https://fontawesome.com/license (Commercial License) Copyright 2023 Fonticons, Inc. --><path d="M64 48C37.5 48 16 69.5 16 96V416c0 26.5 21.5 48 48 48H384c26.5 0 48-21.5 48-48V96c0-26.5-21.5-48-48-48H64zM0 96C0 60.7 28.7 32 64 32H384c35.3 0 64 28.7 64 64V416c0 35.3-28.7 64-64 64H64c-35.3 0-64-28.7-64-64V96zM228.7 318.1l-41.4-41.4c-3.6-3.6-8.8-5.3-13.9-4.5s-9.4 4-11.7 8.6l-48 96c-4 7.9-.7 17.5 7.2 21.5s17.5 .7 21.5-7.2l28.1-56.3c2.3-4.6 6.7-7.8 11.7-8.6s10.2 .8 13.9 4.5l54.7 54.7c9.4 9.4 22.1 14.6 35.3 14.6c27.6 0 49.9-22.4 49.9-49.9V248c0-22.1-17.9-40-40-40s-40 17.9-40 40v58.7c0 6.5-3.9 12.3-9.9 14.8s-12.9 1.1-17.4-3.5zM240 144a32 32 0 1 0 -64 0 32 32 0 1 0 64 0zm-.6 252.7l-42.7-42.7L184.8 342l-7.5 15.1-20.6 41.2c-7.9 15.8-27.1 22.2-42.9 14.3s-22.2-27.1-14.3-42.9l48-96c4.6-9.2 13.3-15.6 23.5-17.3s20.5 1.7 27.8 9L224 290.7l16 16V284.1 248c0-30.9 25.1-56 56-56s56 25.1 56 56V350.1c0 36.4-29.5 65.9-65.9 65.9c-17.5 0-34.3-6.9-46.6-19.3zM208 96a48 48 0 1 1 0 96 48 48 0 1 1 0-96z"/></svg>

<svg xmlns="http://www.w3.org/2000/svg" viewBox="0 0 448 512"><!--! Font Awesome Pro 6.3.0 by @fontawesome - https://fontawesome.com License - https://fontawesome.com/license (Commercial License) Copyright 2023 Fonticons, Inc. --><path d="M239.4 396.7L184.8 342L156.6 398.3C148.7 414.1 129.5 420.5 113.7 412.6C97.89 404.7 91.48 385.5 99.39 369.7L147.4 273.7C151.1 264.5 160.7 258.1 170.9 256.4C181 254.8 191.4 258.1 198.6 265.4L240 306.7V248C240 217.1 265.1 192 296 192C326.9 192 352 217.1 352 248V350.1C352 386.5 322.5 416 286.1 416C268.6 416 251.8 409.1 239.4 396.7zM187.3 276.7C183.7 273 178.5 271.4 173.4 272.2C168.4 273 163.1 276.2 161.7 280.8L113.7 376.8C109.7 384.7 112.9 394.4 120.9 398.3C128.8 402.3 138.4 399.1 142.3 391.2L170.5 334.9C172.8 330.3 177.1 327.1 182.2 326.2C187.3 325.4 192.5 327.1 196.1 330.7L250.8 385.4C260.1 394.7 272.8 400 286.1 400C313.6 400 336 377.6 336 350.1V248C336 225.9 318.1 208 296 208C273.9 208 256 225.9 256 248V306.7C256 313.2 252.1 319.1 246.1 321.5C240.2 324 233.3 322.6 228.7 318.1L187.3 276.7zM160 144C160 117.5 181.5 96 208 96C234.5 96 256 117.5 256 144C256 170.5 234.5 192 208 192C181.5 192 160 170.5 160 144zM208 112C190.3 112 176 126.3 176 144C176 161.7 190.3 176 208 176C225.7 176 240 161.7 240 144C240 126.3 225.7 112 208 112zM0 96C0 60.65 28.65 32 64 32H384C419.3 32 448 60.65 448 96V416C448 451.3 419.3 480 384 480H64C28.65 480 0 451.3 0 416V96zM16 96V416C16 442.5 37.49 464 64 464H384C410.5 464 432 442.5 432 416V96C432 69.49 410.5 48 384 48H64C37.49 48 16 69.49 16 96z"/></svg>
